X: 17057
T: Heather Island
R: waltz
M: 3/4
K: Bminor
A2|:d4c2|B(e-e)4|c4B2|A6|d4c2|B4B2|d4e2|f6|
a4f2|e4d2|e(f-f)4|A6|B(d-d)4|f4a2|f4B2|c(B-B)4:|
|:a4f2|e(a-a)4|c4B2|A6|d4c2|B4B2|d4e2|f6|
a4f2|e4d2|e(f-f)4|A6|B(d-d)4|f4a2|f4B2|c(B-B)4:|

